X:63
T:Gan Ainm
R:Reel
S:Unknown group (Moher?)
D:Clare FM broadcast. 
M:4/4
Z:Bernie Stocks
K:G
|: edBA G3E | DEGB AE~E2 | GEDB, DEGA |1 B2Bd efgf :|2 B2Bd e3f || g2gf gfed | 
Bd~d2 edBd | g2gf gfed | edef e2ef |gbgb fafa | egfd edBA | dBAF G3A | B2Bd efgf ||
<end>
<start>
